svg/aws-iam-role.svg

<?xml version="1.0" encoding="UTF-8"?>
<svg xmlns="http://www.w3.org/2000/svg" xmlns:xlink="http://www.w3.org/1999/xlink" width="56.727001" height="32" viewBox="0 0 56.727001 32">
<path fill-rule="nonzero" fill="rgb(86.666667%, 20.392157%, 29.803923%)" fill-opacity="1" d="M 55.816406 21.519531 C 55.632812 21.359375 55.417969 21.230469 55.191406 21.140625 C 53.875 9.410156 43.882812 0.363281 31.957031 0.363281 C 26.574219 0.367188 21.355469 2.222656 17.179688 5.621094 C 11.710938 10.054688 8.539062 16.726562 8.550781 23.765625 C 8.550781 23.816406 8.558594 23.875 8.558594 23.925781 C 7.714844 24.347656 6.828125 24.75 5.941406 25.132812 C 3.25 26.3125 1.308594 27.164062 1.019531 28.699219 C 0.945312 29.082031 0.9375 29.847656 1.671875 30.589844 C 2.980469 31.898438 5.492188 32.363281 8.035156 32.363281 C 9.078125 32.363281 10.117188 32.289062 11.148438 32.144531 C 12.835938 31.921875 15.984375 31.300781 18.125 29.738281 C 21.5 27.289062 29.128906 26.378906 33.097656 26.683594 C 35.46875 26.867188 38.335938 28.109375 40.640625 29.105469 C 42.398438 29.875 43.789062 30.472656 44.878906 30.632812 C 46.378906 30.835938 48.828125 30.582031 51.425781 30.320312 L 51.644531 30.296875 C 52.3125 30.226562 52.976562 30.164062 53.644531 30.109375 C 53.921875 30.078125 54.183594 30.058594 54.546875 30.035156 C 55.65625 29.953125 56.511719 29.03125 56.515625 27.921875 L 56.515625 23.097656 C 56.515625 22.496094 56.261719 21.921875 55.816406 21.519531 Z M 31.957031 2.878906 C 42.5 2.878906 51.351562 10.816406 52.65625 21.140625 C 52.289062 21.171875 51.914062 21.207031 51.503906 21.242188 L 51.273438 21.265625 C 51.242188 20.105469 50.292969 19.179688 49.132812 19.179688 L 48.238281 19.179688 C 45.460938 11.019531 37.433594 5.390625 28.34375 5.390625 C 24.972656 5.390625 21.671875 6.160156 18.710938 7.628906 C 18.734375 7.605469 18.757812 7.59375 18.769531 7.578125 C 22.496094 4.542969 27.152344 2.882812 31.957031 2.878906 Z M 44.910156 23.417969 L 44.910156 21.695312 L 48.757812 21.695312 L 48.757812 23.417969 Z M 10.816406 29.652344 C 7.476562 30.109375 4.835938 29.703125 3.746094 29.027344 C 4.40625 28.558594 5.90625 27.90625 6.953125 27.449219 C 7.871094 27.050781 8.777344 26.628906 9.671875 26.183594 C 11.128906 27.289062 12.929688 28.117188 14.921875 28.609375 C 13.765625 29.078125 12.34375 29.441406 10.816406 29.652344 Z M 54 27.550781 C 53.804688 27.5625 53.609375 27.578125 53.417969 27.601562 C 52.761719 27.652344 52.074219 27.714844 51.375 27.789062 L 51.164062 27.8125 C 48.945312 28.042969 46.421875 28.296875 45.230469 28.136719 C 44.480469 28.027344 43.097656 27.433594 41.636719 26.800781 C 39.164062 25.722656 36.078125 24.386719 33.292969 24.175781 C 29.453125 23.875 22.820312 24.605469 18.550781 26.605469 C 16.078125 26.496094 13.78125 25.824219 12.007812 24.726562 C 12 24.457031 11.996094 24.183594 11.992188 23.914062 C 11.992188 18.707031 14.429688 13.816406 18.691406 10.496094 C 21.625 8.796875 24.957031 7.90625 28.34375 7.914062 C 36.050781 7.914062 42.894531 12.464844 45.5625 19.179688 L 44.539062 19.179688 C 43.53125 19.179688 42.660156 19.882812 42.445312 20.867188 C 42.269531 20.800781 42.109375 20.742188 41.925781 20.667969 C 39.367188 19.679688 35.863281 18.335938 31.8125 18.574219 C 25.882812 18.921875 22.96875 19.28125 20.667969 19.933594 L 21.359375 22.355469 C 23.460938 21.753906 26.234375 21.425781 31.957031 21.082031 C 35.460938 20.886719 38.675781 22.117188 41.019531 23.019531 C 41.511719 23.207031 41.964844 23.382812 42.394531 23.527344 L 42.394531 23.789062 C 42.394531 24.972656 43.351562 25.933594 44.539062 25.933594 L 49.132812 25.933594 C 50.3125 25.933594 51.273438 24.972656 51.28125 23.796875 L 51.722656 23.753906 C 52.472656 23.6875 53.15625 23.621094 53.730469 23.5625 L 54 23.542969 Z M 54 27.550781 "/>
</svg>

<svg role="img" viewBox="0 0 56.727 32" xmlns="http://www.w3.org/2000/svg"><path d="M55.816 21.52a2.2 2.2 0 0 0-.625-.38C53.875 9.41 43.883.364 31.957.364A23.44 23.44 0 0 0 17.18 5.621a23.31 23.31 0 0 0-8.63 18.145c0 .05.009.109.009.16-.844.422-1.73.824-2.618 1.207-2.691 1.18-4.632 2.031-4.921 3.566-.075.383-.083 1.149.652 1.89 1.308 1.31 3.82 1.774 6.363 1.774a22 22 0 0 0 3.113-.218c1.688-.223 4.836-.844 6.977-2.407 3.375-2.449 11.004-3.36 14.973-3.054 2.37.183 5.238 1.425 7.543 2.421 1.757.77 3.148 1.368 4.238 1.528 1.5.203 3.95-.051 6.547-.313l.219-.023q1-.105 2-.188c.277-.03.539-.05.902-.074a2.126 2.126 0 0 0 1.969-2.113v-4.824c0-.602-.254-1.176-.7-1.578M31.957 2.879c10.543 0 19.395 7.937 20.7 18.262-.368.03-.743.066-1.153.101l-.23.024a2.143 2.143 0 0 0-2.141-2.086h-.895C45.461 11.02 37.434 5.39 28.344 5.39c-3.371 0-6.672.77-9.633 2.239.023-.024.047-.035.059-.05a20.9 20.9 0 0 1 13.187-4.7M44.91 23.418v-1.723h3.848v1.723Zm-34.094 6.234c-3.34.457-5.98.051-7.07-.625.66-.468 2.16-1.12 3.207-1.578q1.377-.597 2.719-1.265c1.457 1.105 3.258 1.933 5.25 2.425-1.156.47-2.578.832-4.106 1.043M54 27.551q-.293.017-.582.05c-.656.051-1.344.114-2.043.188l-.21.023c-2.22.231-4.743.485-5.935.325-.75-.11-2.132-.703-3.593-1.336-2.473-1.078-5.559-2.414-8.344-2.625-3.84-.301-10.473.43-14.742 2.43-2.473-.11-4.77-.782-6.543-1.88q-.011-.405-.016-.812c0-5.207 2.438-10.098 6.7-13.418a19.2 19.2 0 0 1 9.652-2.582c7.707 0 14.55 4.55 17.219 11.266h-1.024a2.144 2.144 0 0 0-2.094 1.687c-.175-.066-.336-.125-.52-.199-2.558-.988-6.062-2.332-10.112-2.094-5.93.348-8.844.707-11.145 1.36l.691 2.421c2.102-.601 4.875-.93 10.598-1.273 3.504-.195 6.719 1.035 9.063 1.938.492.187.945.363 1.375.507v.262c0 1.184.957 2.145 2.144 2.145h4.594c1.18 0 2.14-.961 2.148-2.137l.442-.043c.75-.067 1.433-.133 2.007-.192l.27-.019Zm0 0" fill="rgb(86.666667%, 20.392157%, 29.803923%)"/></svg>
